images/icons/work-bg.svg

<svg width="430" height="577" xmlns="http://www.w3.org/2000/svg"><path opacity=".3" d="M174.6 375.6c0-27.733 6.133-50.667 18.4-68.8 12.8-18.133 31.2-38.133 55.2-60 17.6-16 30.4-29.333 38.4-40 8.533-11.2 12.8-23.733 12.8-37.6 0-19.733-8-35.2-24-46.4-15.467-11.733-36.267-17.6-62.4-17.6-25.067 0-47.467 5.333-67.2 16-19.2 10.133-35.467 24.533-48.8 43.2L.2 107.6c22.4-34.133 52.533-60.533 90.4-79.2C129 9.733 174.333.4 226.6.4 287.933.4 337 13.467 373.8 39.6c37.333 26.133 56 62.4 56 108.8 0 21.867-3.733 41.067-11.2 57.6-6.933 16.533-15.733 30.667-26.4 42.4-10.133 11.2-23.467 24.267-40 39.2-19.733 17.6-34.133 32.533-43.2 44.8-9.067 11.733-13.6 26.133-13.6 43.2H174.6zm60.8 200.8c-21.867 0-40.267-6.933-55.2-20.8-14.4-14.4-21.6-31.733-21.6-52s7.2-37.067 21.6-50.4c14.4-13.867 32.8-20.8 55.2-20.8 22.4 0 40.8 6.933 55.2 20.8 14.4 13.333 21.6 30.133 21.6 50.4s-7.467 37.6-22.4 52c-14.4 13.867-32.533 20.8-54.4 20.8z"/></svg>

<svg width="430" height="577" viewBox="0 0 430 577" fill="#000" xmlns="http://www.w3.org/2000/svg">
<path opacity="0.3" d="M174.6 375.6C174.6 347.867 180.733 324.933 193 306.8C205.8 288.667 224.2 268.667 248.2 246.8C265.8 230.8 278.6 217.467 286.6 206.8C295.133 195.6 299.4 183.067 299.4 169.2C299.4 149.467 291.4 134 275.4 122.8C259.933 111.067 239.133 105.2 213 105.2C187.933 105.2 165.533 110.533 145.8 121.2C126.6 131.333 110.333 145.733 97 164.4L0.2 107.6C22.6 73.4667 52.7333 47.0666 90.6 28.4C129 9.73331 174.333 0.39999 226.6 0.39999C287.933 0.39999 337 13.4666 373.8 39.6C411.133 65.7333 429.8 102 429.8 148.4C429.8 170.267 426.067 189.467 418.6 206C411.667 222.533 402.867 236.667 392.2 248.4C382.067 259.6 368.733 272.667 352.2 287.6C332.467 305.2 318.067 320.133 309 332.4C299.933 344.133 295.4 358.533 295.4 375.6H174.6ZM235.4 576.4C213.533 576.4 195.133 569.467 180.2 555.6C165.8 541.2 158.6 523.867 158.6 503.6C158.6 483.333 165.8 466.533 180.2 453.2C194.6 439.333 213 432.4 235.4 432.4C257.8 432.4 276.2 439.333 290.6 453.2C305 466.533 312.2 483.333 312.2 503.6C312.2 523.867 304.733 541.2 289.8 555.6C275.4 569.467 257.267 576.4 235.4 576.4Z"/>
</svg>
